X:1
T:Glory in My Soul
T:Glory in My Soul
T:William James Kirkpatrick
T:William J. Henry, 1908
T:Public Domain Courtesy of the Cyber Hymnal™
C:William James Kirkpatrick
Z:Public Domain
Z:Courtesy of the Cyber Hymnal™
%%score ( 1 2 ) ( 3 4 )
L:1/8
Q:1/4=103
M:4/4
K:G
V:1 treble 
V:2 treble 
V:3 bass 
V:4 bass 
V:1
 [DG]2 [DG]2 [DG]>[DA] [GB]>[Gc] | [Gd]4 [GB]4 | [FA]2 [FA]2 [FA]>[Ac] [GB]>[FA] | [GB]6 z2 | %4
w: 1.~Since my sins are all for-|giv- en,|And the Lord has made me|whole,|
w: 2.~All my bo- dy, soul and|spir- it|Are re- signed to God’s con-|trol,|
w: 3.~When in tri- al or af-|flict- ion,|Je- sus will my heart con-|sole;|
w: 4.~I will run the race with|pa- tience,|Till I safe- ly reach the|goal;|
 [DG]2 [DG]2 [DG]>[DA] [GB]>[Gc] | [Gd]4 [GB]2 [GB]>[GB] | [FA]2 [Fd]2 [Ed]2 [G^c]2 | [Fd]6 || %8
w: I have ceased from all my|sigh- ing, For there’s|glo- ry in my|soul.|
w: And my life is full of|sun- shine With His|glo- ry in my|soul.|
w: And my sor- row turn to|bless- ing With His|glo- ry in my|soul.|
w: Then I’ll sing thro’ cease- less|ag- es Of His|glo- ry in my|soul.|
"^Refrain" [Fe]>[Fd] | [Gd]4 [GB]2 [Ge]2 | [Gd]>[Gd] [Bd]>[Ac] [GB]2 [Gd]>[Gd] | %11
w: |||
w: O there’s|glo- ry, there’s|glo- ry in my soul, O there’s|
w: |||
w: |||
 [Fc]4 [FA]2 [Ac]2 | [GB]>[GB] [GB]>[Ac] !fermata![Bd]2 D>D | E>D E>F G>F G>[FA] | %14
w: |||
w: glo- ry, there’s|glo- ry in my soul; Tho’ the|cares of life sur- round me, And their|
w: |||
w: |||
 [GB]>[FA] [GB]>[Ac] [Bd]2 [Ge]2 | [Gd] [GB]3 [GB]2 [GA]2 | [DG]6 z2 |] %17
w: |||
w: storm- y bil- lows roll, There’s|glo- ry in my|soul.|
w: |||
w: |||
V:2
 x8 | x8 | x8 | x8 | x8 | x8 | x8 | x6 || x2 | x8 | x8 | x8 | x6 D>D | E>D E>F G>F G3/2 x/ | x8 | %15
 x8 | x8 |] %17
V:3
 [G,B,]2 [G,B,]2 [G,B,]>[G,C] [G,D]>[G,D] | [G,B,]4 [G,D]4 | %2
 [D,D]2 [D,D]2 [D,D]>[D,D] [D,D]>[D,D] | [G,D]6 z2 | [G,B,]2 [G,B,]2 [G,B,]>[G,C] [G,D]>[G,D] | %5
 [G,B,]4 [G,D]2 [G,D]>[G,D] | [A,D]2 [A,D]2 A,2 A,2 | [D,A,]6 || [D,C]>[D,C] | %9
 [G,B,]4 [G,D]2 [G,C]2 | [G,B,]>[G,B,] [G,D]>[G,D] [G,D]2 [G,B,]>[G,B,] | [D,A,]4 [D,D]2 [D,D]2 | %12
 [G,D]>[G,D] [G,D]>[G,D] !fermata![G,D]2 D,>D, | E,>D, E,>F, G,>F, G,>[D,D] | %14
 [G,D]>[G,D] [G,D]>[G,D] [G,D]2 [C,C]2 | [D,B,] [D,D]3 [D,D]2 [D,C]2 | [G,,B,]6 z2 |] %17
V:4
 x8 | x8 | x8 | x8 | x8 | x8 | x4 A,2 A,2 | x6 || x2 | x8 | x8 | x8 | x6 D,>D, | %13
 E,>D, E,>F, G,>F, G,3/2 x/ | x8 | x8 | x8 |] %17

